assets/icons/qvision/no_luggage.svg

<svg width="24" height="24" viewBox="0 0 24 24" fill="none" xmlns="http://www.w3.org/2000/svg">
<g clip-path="url(#clip0_147_6546)">
<path d="M12.7501 9V9.92L14.5001 11.67V9H16.0001V13.17L19.0001 16.17V8C19.0001 6.9 18.1001 6 17.0001 6H15.0001V3C15.0001 2.45 14.5501 2 14.0001 2H10.0001C9.45014 2 9.00014 2.45 9.00014 3V6H8.83014L11.8301 9H12.7501ZM10.5001 3.5H13.5001V6H10.5001V3.5ZM21.1901 21.19L2.81014 2.81L1.39014 4.22L5.02014 7.85C5.02014 7.9 5.00014 7.95 5.00014 8V19C5.00014 20.1 5.90014 21 7.00014 21C7.00014 21.55 7.45014 22 8.00014 22C8.55014 22 9.00014 21.55 9.00014 21H15.0001C15.0001 21.55 15.4501 22 16.0001 22C16.5501 22 17.0001 21.55 17.0001 21C17.3401 21 17.6501 20.91 17.9301 20.76L19.7801 22.61L21.1901 21.19ZM8.00014 18V10.83L9.50014 12.33V18H8.00014ZM12.7501 18H11.2501V14.08L12.7501 15.58V18Z" fill="#323232"/>
</g>
<defs>
<clipPath id="clip0_147_6546">
<rect width="24" height="24" fill="white"/>
</clipPath>
</defs>
</svg>

<svg xmlns="http://www.w3.org/2000/svg" enable-background="new 0 0 24 24" height="24" viewBox="0 0 24 24" width="24"><rect fill="none" height="24" width="24"/><path d="M12.75,9v0.92l1.75,1.75V9H16v4.17l3,3V8c0-1.1-0.9-2-2-2h-2V3c0-0.55-0.45-1-1-1h-4C9.45,2,9,2.45,9,3v3H8.83l3,3H12.75z M10.5,3.5h3V6h-3V3.5z M21.19,21.19L2.81,2.81L1.39,4.22l3.63,3.63C5.02,7.9,5,7.95,5,8v11c0,1.1,0.9,2,2,2c0,0.55,0.45,1,1,1 c0.55,0,1-0.45,1-1h6c0,0.55,0.45,1,1,1s1-0.45,1-1c0.34,0,0.65-0.09,0.93-0.24l1.85,1.85L21.19,21.19z M8,18v-7.17l1.5,1.5V18H8z M12.75,18h-1.5v-3.92l1.5,1.5V18z"/></svg>
